packages/cfd/src/Assets/svgs/trading-platform/ic-appstore-standard.svg

<svg xmlns="http://www.w3.org/2000/svg" viewBox="0 0 32 32" fill="none">
  <g clip-path="url(#clip0_2375_3544)">
    <path d="M26 0H6C2.68629 0 0 2.68629 0 6V23.5H32V6C32 2.68629 29.3137 0 26 0Z" fill="#0364B9"/>
    <path d="M6 0C2.68629 0 0 2.68629 0 6V6.17428L29.9144 1.45264C28.8637 0.547333 27.4958 0 26 0H6Z" fill="#0A559E"/>
    <path d="M32 6C32 4.49576 31.4465 3.12045 30.532 2.06738L26.6028 23.4996L32 23.5V6Z" fill="#0A559E"/>
    <path d="M0 23H32V26C32 29.3137 29.3137 32 26 32H6C2.68629 32 0 29.3137 0 26V23Z" fill="#2A3052"/>
    <path d="M7.34613 9.684C7.49013 9.948 7.65413 10.276 7.83813 10.668C8.03013 11.052 8.22613 11.472 8.42613 11.928C8.63413 12.376 8.83813 12.836 9.03813 13.308C9.23813 13.78 9.42613 14.224 9.60213 14.64C9.77813 14.224 9.96613 13.78 10.1661 13.308C10.3661 12.836 10.5661 12.376 10.7661 11.928C10.9741 11.472 11.1701 11.052 11.3541 10.668C11.5461 10.276 11.7141 9.948 11.8581 9.684H13.5621C13.6421 10.236 13.7141 10.856 13.7781 11.544C13.8501 12.224 13.9101 12.936 13.9581 13.68C14.0141 14.416 14.0621 15.156 14.1021 15.9C14.1501 16.644 14.1901 17.344 14.2221 18H12.3981C12.3741 17.192 12.3421 16.312 12.3021 15.36C12.2621 14.408 12.2021 13.448 12.1221 12.48C11.9781 12.816 11.8181 13.188 11.6421 13.596C11.4661 14.004 11.2901 14.412 11.1141 14.82C10.9461 15.228 10.7821 15.62 10.6221 15.996C10.4621 16.364 10.3261 16.68 10.2141 16.944H8.90613C8.79413 16.68 8.65813 16.364 8.49813 15.996C8.33813 15.62 8.17013 15.228 7.99413 14.82C7.82613 14.412 7.65413 14.004 7.47813 13.596C7.30213 13.188 7.14213 12.816 6.99813 12.48C6.91813 13.448 6.85813 14.408 6.81813 15.36C6.77813 16.312 6.74613 17.192 6.72213 18H4.89813C4.93013 17.344 4.96613 16.644 5.00613 15.9C5.05413 15.156 5.10213 14.416 5.15013 13.68C5.20613 12.936 5.26613 12.224 5.33013 11.544C5.40213 10.856 5.47813 10.236 5.55813 9.684H7.34613Z" fill="white"/>
    <path d="M21.3585 9.684V11.28H18.8505V18H16.9785V11.28H14.4705V9.684H21.3585Z" fill="white"/>
    <path d="M25.3216 15.552C25.3216 15.32 25.2696 15.116 25.1656 14.94C25.0616 14.756 24.8816 14.604 24.6256 14.484C24.3696 14.364 24.0256 14.272 23.5936 14.208C23.1616 14.144 22.6176 14.112 21.9616 14.112C22.0496 13.368 22.1216 12.612 22.1776 11.844C22.2336 11.076 22.2776 10.356 22.3096 9.684H26.8096V11.184H23.8096C23.7936 11.472 23.7736 11.752 23.7496 12.024C23.7336 12.288 23.7136 12.52 23.6896 12.72C24.8576 12.8 25.7176 13.076 26.2696 13.548C26.8296 14.012 27.1096 14.66 27.1096 15.492C27.1096 15.876 27.0416 16.232 26.9056 16.56C26.7696 16.888 26.5656 17.172 26.2936 17.412C26.0216 17.652 25.6776 17.84 25.2616 17.976C24.8536 18.112 24.3736 18.18 23.8216 18.18C23.6056 18.18 23.3776 18.164 23.1376 18.132C22.9056 18.108 22.6776 18.072 22.4536 18.024C22.2376 17.984 22.0416 17.94 21.8656 17.892C21.6896 17.844 21.5536 17.796 21.4576 17.748L21.7816 16.272C21.9816 16.36 22.2456 16.448 22.5736 16.536C22.9016 16.616 23.2936 16.656 23.7496 16.656C24.3016 16.656 24.7016 16.548 24.9496 16.332C25.1976 16.108 25.3216 15.848 25.3216 15.552Z" fill="white"/>
    <path d="M11.8718 28.8719C12.0038 28.8719 12.1118 28.8619 12.1958 28.8419C12.2838 28.8179 12.3538 28.7879 12.4058 28.7519C12.4578 28.7119 12.4938 28.6659 12.5138 28.6139C12.5338 28.5619 12.5438 28.5039 12.5438 28.4399C12.5438 28.3039 12.4798 28.1919 12.3518 28.1039C12.2238 28.0119 12.0038 27.9139 11.6918 27.8099C11.5558 27.7619 11.4198 27.7079 11.2838 27.6479C11.1478 27.5839 11.0258 27.5059 10.9178 27.4139C10.8098 27.3179 10.7218 27.2039 10.6538 27.0719C10.5858 26.9359 10.5518 26.7719 10.5518 26.5799C10.5518 26.3879 10.5878 26.2159 10.6598 26.0639C10.7318 25.9079 10.8338 25.7759 10.9658 25.6679C11.0978 25.5599 11.2578 25.4779 11.4458 25.4219C11.6338 25.3619 11.8458 25.3319 12.0818 25.3319C12.3618 25.3319 12.6038 25.3619 12.8078 25.4219C13.0118 25.4819 13.1798 25.5479 13.3118 25.6199L13.0418 26.3579C12.9258 26.2979 12.7958 26.2459 12.6518 26.2019C12.5118 26.1539 12.3418 26.1299 12.1418 26.1299C11.9178 26.1299 11.7558 26.1619 11.6558 26.2259C11.5598 26.2859 11.5118 26.3799 11.5118 26.5079C11.5118 26.5839 11.5298 26.6479 11.5658 26.6999C11.6018 26.7519 11.6518 26.7999 11.7158 26.8439C11.7838 26.8839 11.8598 26.9219 11.9438 26.9579C12.0318 26.9899 12.1278 27.0239 12.2318 27.0599C12.4478 27.1399 12.6358 27.2199 12.7958 27.2999C12.9558 27.3759 13.0878 27.4659 13.1918 27.5699C13.2998 27.6739 13.3798 27.7959 13.4318 27.9359C13.4838 28.0759 13.5098 28.2459 13.5098 28.4459C13.5098 28.8339 13.3738 29.1359 13.1018 29.3519C12.8298 29.5639 12.4198 29.6699 11.8718 29.6699C11.6878 29.6699 11.5218 29.6579 11.3738 29.6339C11.2258 29.6139 11.0938 29.5879 10.9778 29.5559C10.8658 29.5239 10.7678 29.4899 10.6838 29.4539C10.6038 29.4179 10.5358 29.3839 10.4798 29.3519L10.7438 28.6079C10.8678 28.6759 11.0198 28.7379 11.1998 28.7939C11.3838 28.8459 11.6078 28.8719 11.8718 28.8719Z" fill="white"/>
    <path d="M17.1968 25.4279V26.2259H15.9428V29.5859H15.0068V26.2259H13.7528V25.4279H17.1968Z" fill="white"/>
    <path d="M18.7344 28.8239C18.7784 28.8279 18.8284 28.8319 18.8844 28.8359C18.9444 28.8359 19.0144 28.8359 19.0944 28.8359C19.5624 28.8359 19.9084 28.7179 20.1324 28.4819C20.3604 28.2459 20.4744 27.9199 20.4744 27.5039C20.4744 27.0679 20.3664 26.7379 20.1504 26.5139C19.9344 26.2899 19.5924 26.1779 19.1244 26.1779C19.0604 26.1779 18.9944 26.1799 18.9264 26.1839C18.8584 26.1839 18.7944 26.1879 18.7344 26.1959V28.8239ZM21.4404 27.5039C21.4404 27.8639 21.3844 28.1779 21.2724 28.4459C21.1604 28.7139 21.0004 28.9359 20.7924 29.1119C20.5884 29.2879 20.3384 29.4199 20.0424 29.5079C19.7464 29.5959 19.4144 29.6399 19.0464 29.6399C18.8784 29.6399 18.6824 29.6319 18.4584 29.6159C18.2344 29.6039 18.0144 29.5759 17.7984 29.5319V25.4819C18.0144 25.4419 18.2384 25.4159 18.4704 25.4039C18.7064 25.3879 18.9084 25.3799 19.0764 25.3799C19.4324 25.3799 19.7544 25.4199 20.0424 25.4999C20.3344 25.5799 20.5844 25.7059 20.7924 25.8779C21.0004 26.0499 21.1604 26.2699 21.2724 26.5379C21.3844 26.8059 21.4404 27.1279 21.4404 27.5039Z" fill="white"/>
  </g>
  <defs>
    <clipPath id="clip0_2375_3544">
      <rect width="32" height="32" fill="white"/>
    </clipPath>
  </defs>
</svg>

<svg xmlns="http://www.w3.org/2000/svg" fill="none" viewBox="0 0 32 32"><g clip-path="url(#a)"><path fill="#0364B9" d="M26 0H6a6 6 0 0 0-6 6v17.5h32V6a6 6 0 0 0-6-6Z"/><path fill="#0A559E" d="M6 0a6 6 0 0 0-6 6v.174l29.914-4.721A5.976 5.976 0 0 0 26 0H6ZM32 6c0-1.504-.553-2.88-1.468-3.933L26.602 23.5H32V6Z"/><path fill="#2A3052" d="M0 23h32v3a6 6 0 0 1-6 6H6a6 6 0 0 1-6-6v-3Z"/><path fill="#fff" d="M7.346 9.684c.144.264.308.592.492.984.192.384.388.804.588 1.26.208.448.412.908.612 1.38l.564 1.332.564-1.332c.2-.472.4-.932.6-1.38.208-.456.404-.876.588-1.26.192-.392.36-.72.504-.984h1.704c.08.552.152 1.172.216 1.86.072.68.132 1.392.18 2.136.056.736.104 1.476.144 2.22.048.744.088 1.444.12 2.1h-1.824c-.024-.808-.056-1.688-.096-2.64-.04-.952-.1-1.912-.18-2.88a517.564 517.564 0 0 1-1.008 2.34 108.944 108.944 0 0 1-.9 2.124H8.906c-.112-.264-.248-.58-.408-.948-.16-.376-.328-.768-.504-1.176-.168-.408-.34-.816-.516-1.224l-.48-1.116c-.08.968-.14 1.928-.18 2.88-.04.952-.072 1.832-.096 2.64H4.898c.032-.656.068-1.356.108-2.1l.144-2.22c.056-.744.116-1.456.18-2.136.072-.688.148-1.308.228-1.86h1.788ZM21.358 9.684v1.596H18.85V18h-1.872v-6.72H14.47V9.684h6.888ZM25.322 15.552a1.18 1.18 0 0 0-.156-.612c-.104-.184-.284-.336-.54-.456-.256-.12-.6-.212-1.032-.276a11.46 11.46 0 0 0-1.632-.096c.088-.744.16-1.5.216-2.268.056-.768.1-1.488.132-2.16h4.5v1.5h-3c-.016.288-.036.568-.06.84-.016.264-.036.496-.06.696 1.168.08 2.028.356 2.58.828.56.464.84 1.112.84 1.944 0 .384-.068.74-.204 1.068-.136.328-.34.612-.612.852a2.9 2.9 0 0 1-1.032.564c-.408.136-.888.204-1.44.204-.216 0-.444-.016-.684-.048a6.41 6.41 0 0 1-.684-.108 7.294 7.294 0 0 1-.588-.132 2.309 2.309 0 0 1-.408-.144l.324-1.476c.2.088.464.176.792.264.328.08.72.12 1.176.12.552 0 .952-.108 1.2-.324.248-.224.372-.484.372-.78ZM11.872 28.872c.132 0 .24-.01.324-.03a.689.689 0 0 0 .21-.09.32.32 0 0 0 .108-.138c.02-.052.03-.11.03-.174 0-.136-.064-.248-.192-.336-.128-.092-.348-.19-.66-.294a5.761 5.761 0 0 1-.408-.162 1.633 1.633 0 0 1-.366-.234 1.17 1.17 0 0 1-.264-.342 1.09 1.09 0 0 1-.102-.492c0-.192.036-.364.108-.516.072-.156.174-.288.306-.396.132-.108.292-.19.48-.246.188-.06.4-.09.636-.09a2.59 2.59 0 0 1 1.23.288l-.27.738a2.33 2.33 0 0 0-.39-.156 1.583 1.583 0 0 0-.51-.072c-.224 0-.386.032-.486.096-.096.06-.144.154-.144.282 0 .076.018.14.054.192.036.052.086.1.15.144.068.04.144.078.228.114l.288.102c.216.08.404.16.564.24.16.076.292.166.396.27a.972.972 0 0 1 .24.366c.052.14.078.31.078.51 0 .388-.136.69-.408.906-.272.212-.682.318-1.23.318-.184 0-.35-.012-.498-.036a2.485 2.485 0 0 1-.69-.18 2.41 2.41 0 0 1-.204-.102l.264-.744c.124.068.276.13.456.186a2.5 2.5 0 0 0 .672.078ZM17.197 25.428v.798h-1.254v3.36h-.936v-3.36h-1.254v-.798h3.444ZM18.734 28.824l.15.012h.21c.468 0 .814-.118 1.038-.354.228-.236.342-.562.342-.978 0-.436-.108-.766-.324-.99-.216-.224-.558-.336-1.026-.336-.064 0-.13.002-.198.006-.068 0-.132.004-.192.012v2.628Zm2.706-1.32c0 .36-.056.674-.168.942a1.73 1.73 0 0 1-.48.666 2.005 2.005 0 0 1-.75.396 3.491 3.491 0 0 1-.996.132c-.168 0-.364-.008-.588-.024a4.51 4.51 0 0 1-.66-.084v-4.05c.216-.04.44-.066.672-.078.236-.016.438-.024.606-.024.356 0 .678.04.966.12.292.08.542.206.75.378.208.172.368.392.48.66.112.268.168.59.168.966Z"/></g><defs><clipPath id="a"><path fill="#fff" d="M0 0h32v32H0z"/></clipPath></defs></svg>
